X: 9602
T: Dawley's Delight
R: slide
M: 12/8
K: Dmajor
|:dcB|A2 D FED F2 A A2 F|GAG F2 G E2 F G2 B|
A2 D FED F2 A d2 f|efe B2 c d3:|
|:d2 f|a2 ^g a2 b a2 f e2 d|B2 b b2 ^a b2 =a f2 g|
a3 a2 b a2 f d2 f|efe B2 c d3:|

